X: 39470
T: Tarbolton, The
R: reel
M: 4/4
K: Edorian
|:Eeed e2 BA|GBAF GFEF|Dddc d2 AF|GBAG FDDF|
Eeed efge|fedf edBA|GABG FGA=c|BGAF GE E2:|
|:gfef ge be|gebe gfef|d2 fd adfd|ABAG FDDF|
G2 BG F2 AF|E2ef gfed|B2 dB AGFA|BGAF GE E2:|

